flaticon/interaction/calendar-37.svg

<svg xmlns="http://www.w3.org/2000/svg" width="32" height="32" viewBox="0 0 24 24">
    <path d="M 22.78125 23.1875 L 22.371094 23.1875 L 22.371094 22.226562 C 22.371094 20.789062 21.621094 19.480469 20.410156 18.710938 C 21.621094 17.941406 22.371094 16.636719 22.371094 15.199219 L 22.371094 14.238281 L 22.78125 14.238281 C 23.003906 14.238281 23.1875 14.054688 23.1875 13.832031 C 23.1875 13.605469 23.003906 13.421875 22.78125 13.421875 L 15.457031 13.421875 C 15.234375 13.421875 15.050781 13.605469 15.050781 13.832031 C 15.050781 14.054688 15.234375 14.238281 15.457031 14.238281 L 15.863281 14.238281 L 15.863281 15.199219 C 15.863281 16.636719 16.613281 17.941406 17.828125 18.710938 C 16.613281 19.480469 15.863281 20.789062 15.863281 22.226562 L 15.863281 23.1875 L 15.457031 23.1875 C 15.234375 23.1875 15.050781 23.367188 15.050781 23.59375 C 15.050781 23.816406 15.234375 24 15.457031 24 L 22.78125 24 C 23.003906 24 23.1875 23.816406 23.1875 23.59375 C 23.1875 23.367188 23.003906 23.1875 22.78125 23.1875 Z M 16.679688 15.199219 L 16.679688 14.238281 L 21.558594 14.238281 L 21.558594 15.199219 C 21.558594 16.546875 20.730469 17.757812 19.445312 18.304688 L 18.792969 18.304688 C 17.503906 17.757812 16.679688 16.546875 16.679688 15.199219 Z M 16.679688 22.226562 C 16.679688 20.875 17.503906 19.664062 18.792969 19.117188 L 19.445312 19.117188 C 20.730469 19.664062 21.558594 20.875 21.558594 22.226562 L 21.558594 23.1875 L 16.679688 23.1875 Z M 16.679688 22.226562"/>
    <path d="M 19.117188 13.015625 L 19.117188 8.542969 L 3.660156 8.542969 L 3.660156 20.339844 L 11.796875 20.339844 L 11.796875 13.015625 Z M 8.136719 9.355469 L 10.984375 9.355469 L 10.984375 12.203125 L 8.136719 12.203125 Z M 4.472656 9.355469 L 7.320312 9.355469 L 7.320312 12.203125 L 4.472656 12.203125 Z M 4.472656 13.015625 L 7.320312 13.015625 L 7.320312 15.863281 L 4.472656 15.863281 Z M 7.320312 19.527344 L 4.472656 19.527344 L 4.472656 16.679688 L 7.320312 16.679688 Z M 10.984375 19.527344 L 8.136719 19.527344 L 8.136719 16.679688 L 10.984375 16.679688 Z M 10.984375 15.863281 L 8.136719 15.863281 L 8.136719 13.015625 L 10.984375 13.015625 Z M 14.644531 12.203125 L 11.796875 12.203125 L 11.796875 9.355469 L 14.644531 9.355469 Z M 15.457031 9.355469 L 18.304688 9.355469 L 18.304688 12.203125 L 15.457031 12.203125 Z M 15.457031 9.355469"/>
    <path d="M 13.421875 22.371094 L 1.628906 22.371094 L 1.628906 6.507812 L 21.152344 6.507812 L 21.152344 11.390625 C 21.152344 11.613281 21.335938 11.796875 21.558594 11.796875 C 21.785156 11.796875 21.964844 11.613281 21.964844 11.390625 L 21.964844 2.035156 C 21.964844 1.808594 21.785156 1.628906 21.558594 1.628906 L 19.527344 1.628906 L 19.527344 0.40625 C 19.527344 0.183594 19.34375 0 19.117188 0 L 16.269531 0 C 16.046875 0 15.863281 0.183594 15.863281 0.40625 L 15.863281 1.628906 L 6.914062 1.628906 L 6.914062 0.40625 C 6.914062 0.183594 6.734375 0 6.507812 0 L 3.660156 0 C 3.4375 0 3.253906 0.183594 3.253906 0.40625 L 3.253906 1.628906 L 1.21875 1.628906 C 0.996094 1.628906 0.8125 1.808594 0.8125 2.035156 L 0.8125 22.78125 C 0.8125 23.003906 0.996094 23.1875 1.21875 23.1875 L 13.421875 23.1875 C 13.648438 23.1875 13.832031 23.003906 13.832031 22.78125 C 13.832031 22.554688 13.648438 22.371094 13.421875 22.371094 Z M 16.679688 0.8125 L 18.710938 0.8125 L 18.710938 3.253906 L 16.679688 3.253906 Z M 4.066406 0.8125 L 6.101562 0.8125 L 6.101562 3.253906 L 4.066406 3.253906 Z M 1.628906 2.441406 L 3.253906 2.441406 L 3.253906 3.660156 C 3.253906 3.886719 3.4375 4.066406 3.660156 4.066406 L 6.507812 4.066406 C 6.734375 4.066406 6.914062 3.886719 6.914062 3.660156 L 6.914062 2.441406 L 15.863281 2.441406 L 15.863281 3.660156 C 15.863281 3.886719 16.046875 4.066406 16.269531 4.066406 L 19.117188 4.066406 C 19.34375 4.066406 19.527344 3.886719 19.527344 3.660156 L 19.527344 2.441406 L 21.152344 2.441406 L 21.152344 5.695312 L 1.628906 5.695312 Z M 1.628906 2.441406"/>
</svg>

<svg xmlns="http://www.w3.org/2000/svg" width="32" height="32" viewBox="0 0 24 24">
    <path d="M22.781 23.188h-.41v-.961c0-1.438-.75-2.747-1.96-3.516 1.21-.77 1.96-2.074 1.96-3.512v-.96h.41a.408.408 0 0 0 0-.817h-7.324a.408.408 0 0 0 0 .816h.406v.961c0 1.438.75 2.742 1.965 3.512-1.215.77-1.965 2.078-1.965 3.516v.96h-.406a.406.406 0 1 0 0 .813h7.324a.406.406 0 1 0 0-.813zm-6.101-7.989v-.96h4.879v.96c0 1.348-.829 2.559-2.114 3.106h-.652c-1.29-.547-2.113-1.758-2.113-3.106zm0 7.028c0-1.352.824-2.563 2.113-3.11h.652c1.285.547 2.114 1.758 2.114 3.11v.96h-4.88zm0 0"/>
    <path d="M19.117 13.016V8.543H3.66V20.34h8.137v-7.324zm-10.98-3.66h2.847v2.847H8.137zm-3.664 0H7.32v2.847H4.473zm0 3.66H7.32v2.847H4.473zm2.847 6.511H4.473V16.68H7.32zm3.664 0H8.137V16.68h2.847zm0-3.664H8.137v-2.847h2.847zm3.66-3.66h-2.847V9.355h2.848zm.813-2.848h2.848v2.848h-2.848zm0 0"/>
    <path d="M13.422 22.371H1.629V6.508h19.523v4.883a.406.406 0 1 0 .813 0V2.035a.403.403 0 0 0-.406-.406h-2.032V.406a.41.41 0 0 0-.41-.406H16.27a.408.408 0 0 0-.407.406V1.63H6.914V.406A.406.406 0 0 0 6.508 0H3.66a.408.408 0 0 0-.406.406V1.63H1.219a.406.406 0 0 0-.407.406v20.746c0 .223.184.407.407.407h12.203a.41.41 0 0 0 .41-.407.41.41 0 0 0-.41-.41zM16.68.813h2.03v2.44h-2.03zm-12.614 0h2.036v2.44H4.066zM1.63 2.44h1.625v1.22c0 .226.183.405.406.405h2.848c.226 0 .406-.18.406-.406V2.441h8.95v1.22c0 .226.183.405.406.405h2.847c.227 0 .41-.18.41-.406V2.441h1.625v3.254H1.63zm0 0"/>
</svg>
